X: 45
T: Jackson's Breakdown
Z: 1997 by John Chambers <jc:trillian.mit.edu>
M: 2/4
L: 1/8
K: D
|: "D"Ad f/g/f/e/ | dF A>d |1,3 "A7"cE G>B | "D"AD F2 :|2,4 "A7"cA Bc | "D"d2 d2 :| [K:A]
|: "A"[e2c2] [e2c2] | ea [e2c2] | "E7"bf ge |1,3 "A"ac e2 :|2,4 "A"a2 a2 :|

%%sep 1 1 500

